!!!COM: Bach, Johann Sebastian
!!!OPR: Das wohltemperirte Clavier, Band I
!!!XEN: The Well-Tempered Clavier, Volume I
!!!OTL: Prelude in G-sharp Minor
!!!OMV: Prelude XVIII
!!!SCT: BWV 863
!!!SCA: Thematisch-systematisches Verzeichnis der musikalischen Werke Johann Sebastian Bach: Bach-Werke-Verzeichnis (Schmieder)
!!!YOR: Bach Gesellschaft Edition xiv
!!!ENC: Walter Hewlett
!!!CDT: 1685/3//-1750/7/28/
!!!OCY: Deutschland
!!!YEC: Copyright (c) 1994, 2000 Center for Computer Assisted Research in the Humanities
!!!YEM: Rights to all derivative editions reserved
!!!YEN: United States of America
**kern
*k[f#c#g#d#a#]
*g#:
*M6/8
*MM116
=1-
*^
*^	*
16g#/LL	8B/L	4.G#\
16a#/	.	.
16b/	8d#/	.
16g#/	.	.
16a#/	[8c#/J	.
16cc#/JJ	.	.
8ee/L	8c#/L]	4.F##t\xx
8dd#/	8B/	.
8cc#/J	8A#/J	.
=2	=2	=2
*^	*	*
8b/	8ryy	4b\	16G#\LL
.	.	.	16A#\
!	! Printed as part of track one	!	!
!	! B4     2      2 e     u1	!	!
4gg#/	8dd#/L	.	16B\
.	.	.	16G#\
.	[8cc#/J	[8a#\	16A#\
.	.	.	16c#\JJ
4.ff##t/xx	8cc#/L]	8a#\]	8e\L
.	8b/	[4d#/	8d#\
.	8a#/J	.	8c#\J
=3	=3	=3	=3
16gg#/LL	8dd#\	8d#/L]	4.B\
16aa#/	.	.	.
16bb/	8ryy	8g#\	.
16dd#/	.	.	.
16ee/	8ryy	[8c#/J	.
16gg#/JJ	.	.	.
16ff#/LL	4ryy	8c#/L]	4.A#\
16gg#/	.	.	.
16aa#/	.	8f#\	.
16cc#/	.	.	.
16dd#/	8ryy	[8B/J	.
16ff#/JJ	.	.	.
=4	=4	=4	=4
*v	*v	*	*
16ee/LL	8B/	4G#\
16ff#/	.	.
16gg#/	[4e\	.
16b/	.	.
16cc#/	.	8E\
16ee/JJ	.	.
16a#/LL	8e\L]	8F#\L
16b/	.	.
16cc#/	8d#\	8G#\
16f#/	.	.
16cc#/	8c#\J	8A#\J
16ee/JJ	.	.
=5	=5	=5
16dd#/LL	16B\LL	8B\]
16ee/	16c#\	.
16ff#/	16d#\	8r
16dd#/	16B\	.
16ee/	16c#\	8r
16gg#/JJ	16e\JJ	.
16b/LL	8g#\L	4r
16a#/	.	.
16b/	8f#\	.
16a#/	.	.
16b/	8e\J	8r
[16cc#/JJ	.	.
=6	=6	=6
8cc#/]	16d#\LL	16BB\LL
.	16e\	16C#\
[4b/	16f#\	16D#\
.	16d#\	16BB\
.	16e\	16C#\
.	16g#\JJ	16E\JJ
16b/LL]	[4.c#\	8G#\L
16b/	.	.
16a#/	.	8F#\
16b/	.	.
16cc#/	.	8E\J
16a#/JJ	.	.
=7	=7	=7
[4.f#/	8c#\L]	16D#\LL
.	.	16E\
.	(16B\L	16F#\
.	16An\)	16D#\
.	(16c#\	16E#\
.	16B\JJ)	16G#\JJ
16f#/LL]	8dn\L	8B\L
16e#/	.	.
16f#/	8c#\	8An\
16e#/	.	.
16f#/	[8B\J	8G#\J
16g#/JJ	.	.
=8	=8	=8
16c#/LL	8B\L]	[4.F#\
16d#/	.	.
16en/	16An/L	.
16c#/	16G#/	.
16d#/	16A/	.
16f#/JJ	16F#/JJ	.
8an/L	8B#\L	16F#\LL]
.	.	16F#\
8g#/	8c#\	16E\
.	.	16D#\
8f#/J	8d#\J	16C#\
.	.	16BB#\JJ
=9	=9	=9
4e/	16G#/LL	4.C#\
.	16A#/	.
.	16Bn/	.
.	16G#/	.
8cc#/	16A#/	.
.	16c#/JJ	.
[4.a#/	8e\L	16FF##\LL
.	.	16c#\
.	8d#\	16B\
.	.	16A#\
.	8c#\J	16G#\
.	.	16F##\JJ
=10	=10	=10
16a#/LL]	4.B\	[4.G#\
16g#/	.	.
16f##/	.	.
16a#/	.	.
16g#/	.	.
16e#/JJ	.	.
8c##/L	[4.A#\	16G#\LL]
.	.	16G#\
8d#/	.	16F#\
.	.	16E#\
8e#/J	.	16D#\
.	.	16C##\JJ
=11	=11	=11
4.f#/	8A#\L]	16D#\LL
.	.	16E#\
.	8d#\	16F#\
.	.	16AA#\
.	[8G#/J	16BB\
.	.	16D#\JJ
4.e#/	8G#/L]	16C#\LL
.	.	16D#\
.	8c#/	16E#\
.	.	16GG#\
.	[8F#/J	16AA#\
.	.	16C#\JJ
=12	=12	=12
8.d#/L	8F#/]	16BB\LL
.	.	16C#\
.	[4B/	16D#\
16d#/L	.	16FF#\
16e#/	.	16GG#\
16f#/JJ	.	16BB\JJ
8.g#/L	16B/LL]	8CC##\L
.	16B/JJ	.
.	[4A#/	8C##\
16c##/L	.	.
16e#/	.	8AA#\J
16g#/JJ	.	.
=13	=13	=13
8.f#/L	16A#/LL]	16D#\LL
.	16A#/JJ	16E#\
.	4d#\	16F#\
16f#/L	.	16D#\
16g#/	.	16E#\
16b/JJ	.	16G#\JJ
4.e#T/	4.c##\	8B\L
.	.	8A#\
.	.	8G#\J
=14	=14	=14
16d#/LL	8d#\	16F#\LL
16e#/	.	16G#\
16f#/	8r	16A#\
16d#/	.	16F#\
16e#/	8r	16G#\
16g#/JJ	.	16B\JJ
8b/L	4r	16C##\LL
.	.	16D#\
8a#/	.	16E#\
.	.	16AA#\
8g#/J	8r	16C##\
.	.	16E#\JJ
=15	=15	=15
[4f#/	16d#\LL	4.D#\
.	16c#\	.
.	16B\	.
.	16d#\	.
16f#/LL]	16c#\	.
16g#/JJ	16A#/JJ	.
16a#/LL	8F##/L	4.C#\
16b/	.	.
16cc#/	8G#/	.
16a#/	.	.
16b/	[8A#/J	.
16cc#/JJ	.	.
=16	=16	=16
16dd#/LL	8A#/L]	4.BB\
16cc#/	.	.
16b/	8G#/	.
16dd#/	.	.
16cc#/	[8e\J	.
16a#/JJ	.	.
8f##/L	8e\L]	16AA#\LL
.	.	16C#\
8g#/	8d#\	16BB\
.	.	16AA#\
8a#/J	8c#\J	16GG#\
.	.	16FF##\JJ
=17	=17	=17
8.b/L	16B\LL	16GG#/LL
.	16d#\JJ	16FF#/
.	4g#\	16EE/
16a#/L	.	16GG#/
16b#/	.	16FF#/
16cc#/JJ	.	16DD#/JJ
4.dd#/	16f#\LL	8BBB#/L
.	16g#\	.
.	16an\	8CC#/
.	16f#\	.
.	16cc#\	8DD#/J
.	16b#\JJ	.
=18	=18	=18
16cc#/LL	4.cc#\	16EE/LL
16dd#/	.	16FF#/
16ee/	.	16GG#/
16cc#/	.	16EE/
16dd#/	.	16FF#/
16ff#/JJ	.	16AAn/JJ
8aan/L	8b#\L	16DD#/LL
.	.	16EE/
8gg#/	8cc#\	16FF#/
.	.	16GG#/
8ff#/J	[8dd#\J	16AA#/
.	.	16BB#/JJ
=19	=19	=19
[4.ee/	8dd#\L]	16C#\LL
.	.	16D#\
.	8cc#\	16E\
.	.	16C#\
.	8bn\J	16E\
.	.	16G#\JJ
8ee/L]	[4.a#\	16F#\LL
.	.	16G#\
8ff#/	.	16A#\
.	.	16F#\
8ee/J	.	16A#\
.	.	16c#\JJ
=20	=20	=20
[4.dd#t/xx	8a#\L]	16BB\LL
.	.	16C#\
.	8b\	16D#\
.	.	16BB\
.	8a#\J	16D#\
.	.	16F#\JJ
8dd#/L]	[4.g#t\xx	16E\LL
.	.	16F#\
8ee/	.	16G#\
.	.	16E\
8dd#/J	.	16G#\
.	.	16B\JJ
=21	=21	=21
[4.cc#t/xx	8g#\L]	16AA#/LL
.	.	16BB/
.	8a#\	16C#/
.	.	16AA#/
.	8g#\J	16C#/
.	.	16E/JJ
8cc#/L]	4.f##t\xx	16D#\LL
.	.	16E#\
8dd#/	.	16F##\
.	.	16D#\
8cc#/J	.	16F##\
.	.	16A#\JJ
=22	=22	=22
16b/LL	8g#\	16G#\LL
16a#/	.	16A#\
16g#/	8r	16B\
16b/	.	16D#\
16cc#/	8r	16E\
16ee/JJ	.	16G#\JJ
16a#/LL	4r	16F#\LL
16g#/	.	16G#\
16f#/	.	16A#\
16a#/	.	16C#\
16b/	8r	16D#\
16dd#/JJ	.	16F#\JJ
=23	=23	=23
16g#/LL	4r	16E\LL
16dd#/	.	16F#\
16cc#/	.	16G#\
16b/	.	16BB\
16a#/	8r	16C#\
16g#/JJ	.	16E\JJ
16f##/LL	8r	16D#\LL
16g#/	.	16E#\
16a#/	8r	16F##\
16f##/	.	16AA#\
16g#/	[8g#\	16BB\
16b/JJ	.	16D#\JJ
=24	=24	=24
8ee/L	8g#\L]	16C#/LL
.	.	16D#/
8ee/	8g#\	16E/
.	.	16BB/
8ee/J	8g#\J	16C#/
.	.	16E/JJ
8ee/L	8cc#\L	16AAn/LL
.	.	16C#/
8ee/	8cc#\	16E/
.	.	16GG#/
8ee/J	8cc#\J	16C#/
.	.	16E/JJ
=25	=25	=25
[4.ee/	16cc#\LL	[4.FF##/
.	16b\	.
.	16a#\	.
.	16cc#\	.
.	16b\	.
.	16g#\JJ	.
16ee/LL]	[4.a#\	8.FF##\L]
16dd#/	.	.
16cc#/	.	.
16aa#/	.	16F##\L
16ee/	.	16G#\
16cc#/JJ	.	16A#\JJ
=26	=26	=26
16dd#/LL	8a#\]	4BB/
16cc#/	.	.
16b/	4g#\	.
16dd#/	.	.
16cc#/	.	8E\
16a#/JJ	.	.
16b/LL	4r	8C#/L
16a#/	.	.
16g#/	.	8D#/
16b/	.	.
16a#/	8r	8DD#/J
16f##/JJ	.	.
=27	=27	=27
[2.g#/	8r	16GG#/LL
.	.	16AA#/
.	8f#\L	16BB#/
.	.	16GG#/
.	8d#\J	16BB#/
.	.	16D#/JJ
.	16c#\LL	8F#\L
.	16B#\	.
.	16c#\	8E\
.	16d#\	.
.	16e\	8D#\J
.	16f#\JJ	.
=28	=28	=28
*^	*	*
2.g#/_	4ryy	16e\LL	2.C#\
.	.	16d#\	.
.	.	16c#\	.
.	.	16e\	.
.	8ryy	16c#\	.
.	.	16A#/JJ	.
.	16r	8F##/L	.
.	16e\LL	.	.
.	16d#\	8G#/	.
.	16c#\	.	.
.	16B#\	8A#/J	.
.	16c#\JJ	.	.
=29	=29	=29	=29
2.g#;/]	2.d#\	2.B#/	2.GG#;\
==|!	==|!	==|!	==|!
*-	*-	*-	*-
!!!END: 1994/01/18/
!!!KEY: 3478561316
!!!EMD: Converted from MuseData to Humdrum Dec 19, 2000, by Andreas Kornstaedt using muse2kern.
